X: 1182
T: The Flax in Bloom (A76)
N: page A76
N: heptatonic
R: Reel
M: 4/4
L: 1/8
K: D
"D"D2 (3FED FAef|"G"gefg "D"fdBd|"A"A2 FA "D"dfaf|"G"gefg "D"edBd|
D2 (3FED FAef|"G"gefg "D"fdBd|"A"(3ABA FA "G"FBde|"A"(3fga eg "D"fd D2::
e2|"D"f2 df "A"(3efe ce|"D"dc DA "A"GAFA|"D"DFAd fedf|"G"gefg "D"edBd|
f2 df "A"(3efe ce|"D"dc DA "A"GAFA|"D"DEFG ABdf|"A"Afea "D"fd d:|

